src/assets/duotone/Tag.svg

<svg width="24" height="24" viewBox="0 0 24 24"  xmlns="http://www.w3.org/2000/svg">
<path opacity="0.4" d="M4.16989 15.3L8.69989 19.83C10.5599 21.69 13.5799 21.69 15.4499 19.83L19.8399 15.44C21.6999 13.58 21.6999 10.56 19.8399 8.68999L15.2999 4.16999C14.3499 3.21999 13.0399 2.70999 11.6999 2.77999L6.69989 3.01999C4.69989 3.10999 3.10989 4.69999 3.00989 6.68999L2.76989 11.69C2.70989 13.04 3.21989 14.35 4.16989 15.3Z" />
<path d="M9.50012 12.38C11.0907 12.38 12.3801 11.0906 12.3801 9.5C12.3801 7.90942 11.0907 6.62 9.50012 6.62C7.90954 6.62 6.62012 7.90942 6.62012 9.5C6.62012 11.0906 7.90954 12.38 9.50012 12.38Z" />
</svg>

<?xml version="1.0" encoding="UTF-8"?>
<svg width="24" height="24" viewBox="0 0 24 24" xmlns="http://www.w3.org/2000/svg">
 <path d="m4.1699 15.3 4.53 4.53c1.86 1.86 4.88 1.86 6.75 0l4.39-4.39c1.86-1.86 1.86-4.88 0-6.75l-4.54-4.52c-0.95-0.95-2.26-1.46-3.6-1.39l-5 0.24c-2 0.09-3.59 1.68-3.69 3.67l-0.24 5c-0.06 1.35 0.45 2.66 1.4 3.61z" opacity=".4"/>
 <path d="m9.5001 12.38c1.5906 0 2.88-1.2894 2.88-2.88 0-1.5906-1.2894-2.88-2.88-2.88s-2.88 1.2894-2.88 2.88c0 1.5906 1.2894 2.88 2.88 2.88z"/>
</svg>
